X: 159
T: A Dhomhnuill! A Dhomhnuill!
R: reel
M: 4/4
K: Gmajor
D|G2GAB2ge|dBAB GEDE|G2GAB2ge|dBAB G/G/G G:|
B|gfede2eg|aeef edBd|gfede2ge|dBAB G/G/G Bd|
gfede2eg|aeef edBd|1 gfed eage|dBAB GEDE||
[2 gfed efga|bagf g3||

